X: 30977
T: Oyster Wife's Rant, The
R: reel
M: 4/4
K: Adorian
edef g2 fe|dGdB dGdg|edef g2 fe|dBgB A2 A>a|
edef g2 fe|dGdB dGdg|edef gage|dBgB A2- A||
eAed eAAB|dGdB dGGg|eAed eAAB|dGdB A2 A>a|
eAed eAAB|dGdB dGGg|edef gbge|dBgB A2- A||

